X:1
T:Sonata for Clarinet and Piano Op. 120 No. 2
T:Johannes Brahms Arr. Conrad Cheng 2017
T:Sonata for Clarinet and Piano Op. 120 No. 2
T:2. Allegro Appassionato
T:Copyright © 
T:Copyright © 
C:Johannes Brahms
Z:Copyright ©
%%score 1 { ( 2 5 6 ) | ( 3 4 7 8 ) }
L:1/8
Q:1/4=120
M:3/4
K:Ab
V:1 treble transpose=-2 nm="Clarinet" snm="Cl."
V:2 treble nm="Piano" snm="Pno."
V:5 treble 
V:6 treble 
V:3 bass 
V:4 bass 
V:7 bass 
V:8 bass 
V:1
[K:Bb]!f!"^Allegro appassionato" (D2 | B4 cB | AG d2) (B2 | g4 ag | fe"^espr." f2)!<(! (B2 | %5
 g2!<)!!>(! c'b a!>)!g) | (ed ec df) | (d'2 c'2 g2 | b2 a2) z2 | z6 | z6 | z6 | z6 | z6 | z6 | z6 | %16
 z2 z2!f!!<(! (F2!<)! |!>(! d2 c2)!>)!!<(! (G2!<)! |!>(! B2 c2)!>)!!<(! (=e2!<)! | %19
!>(! d2 c2)!>)!!<(! (G2!<)! |!>(! B4)!>)! z2 | z6 | z6 | z6 | z6 | z6 | z6 | z2 z2 (d2 | (b6-) | %29
 b4 _c'b) | (_a_g f2) z2 | z2 z2 (B,2 | (B6-) | B4 _c_A | FE D2) z2 | z6 | z2 z2!f! (D2 | B4 cB | %38
 AG d2) (B2 | g4 ag | fe f2!<(! B2 | g2 c'"^cresc."b!<)! ag) | (ed e2) (c'a) | (dc d2)!f! (d'b) | %44
 .g2 (c'a) .^f2 | z6 | z6 | z6 | z2 z2!p! ((cB) | (AG)) z2 (cB | (_AG)) z2 ((BA) | %51
 (G^F)) .F2- .F2 | (^F2 G2 =A2) | D2 z2 z2 | z6 | z2 z2"^piu dolce" ((B_A) | (G^F)) F2!<(! (F-=F | %57
 (FE)) E2 ((EF) | (F_G) (GF)!<)! (FE)) |!>(! (=A2 =G2!>)! ^F2) |"^cresc."!>(! (_e2 d2!>)! c2) | %61
!>(! (d2 c2!>)! =B2) |!>(! (_a2 g2!>)! f2) |!f! (g2 ^f2!>(! =e2-)!>)! | e4 z2 | z6 | %66
!p!!<(! (B6!<)! |!>(! g6-)!>)! | g6- |"^expr." (g2 c'2 b2 | a2 g2) (c'2 | b2 a2 g2 | %72
 e2 ^c2"^dolce" d2-) |"^dim." (d2 =c2 B2 | A2 G2) (.c2 | (B2) A2 G2 | E2 ^C2 D2) | (D6 | G,6-) | %79
 G,6 | G,2 z2 z2 ||"^Sostenuto"[Q:1/4=100] z6 | z6 | z6 | z6 | z6 | z6 | z6 | z6 | z6 | z6 | z6 | %92
 z6 | z6 | z6 |!p!"^ma ben cantando"!>(! g6!>)! | (e2 f2 g2) | (_a4 ge) | (g4 fB) |!>(! b6!>)! | %100
 (g2 b2 e'2) |!<(! (c'4 b!<)!_a |!<(! b4) (g!<)!e) |"^cresc." (e3 c) G2 | (BG D4) | %105
!<(! (B2 A2!<)! G2) |!>(! (A4!>)! B2) |!<(! (A2 G2!<)! A2 |!>(! B4!>)! A2) | z6 | z6 | z6 | %112
 (=E2 G2 c2) |"^cresc." c6 | (=d2 c2 B2) | c6 | (f2 d2 B2) | (A2 G2 F2) | (A2 G2 F2) | z6 | z6 | %121
!f!"^ma dolce"!>(! B,6!>)! | (G,2 _A,2 B,2) | C4 (B,G,) | (B,4 D2) | (E2 D2 C2) | %126
 z2 z2!f! (!>!f2- | f_a) (!>!e3 a) |!f! (dB ec f_A) | (G2 F2 E2) | F4 G2- | G2 E4 | (F2 E2 F2) | %133
 G2 z2 z2 | z6 | z6 | z6 | z6 |[M:3/4] z2 z2 ||[K:Bb][M:3/4]"^Allegro appassionato"[Q:1/4=120] z2 | %140
 z6 | z2 z2!f! (D2 | B4 cB | AG d2) (B2 | g4 ag | fe"^espr." f2)!<(! (B2 | g2!<)!!>(! c'b a!>)!g) | %147
 (ed ec df) | (d'2 c'2 g2 | b2 a2) z2 | z6 | z6 | z6 | z6 | z6 | z6 | z6 | z2 z2!f!!<(! (F2!<)! | %158
!>(! d2 c2)!>)!!<(! (G2!<)! |!>(! B2 c2)!>)!!<(! (=e2!<)! |!>(! d2 c2)!>)!!<(! (G2!<)! | %161
!>(! B4)!>)! z2 | z6 | z6 | z6 | z6 | z6 | z6 | z2 z2 (d2 | (b6-) | b4 _c'b) | (_a_g f2) z2 | %172
 z2 z2 (B,2 | (B6-) | B4 _c_A | FE D2) z2 | z6 | z2 z2!f! (D2 | B4 cB | AG d2) (B2 | g4 ag | %181
 fe f2!<(! B2 | g2 c'"^cresc."b!<)! ag) | (ed e2) (c'a) | (dc d2)!f! (d'b) | .g2 (c'a) .^f2 | z6 | %187
 z6 | z6 | z2 z2!p! ((cB) | (AG)) z2 (cB | (_AG)) z2 ((BA) | (G^F)) .F2- .F2 | (^F2 G2 =A2) | %194
 D2 z2 z2 | z6 | z2 z2"^piu dolce" ((B_A) | (G^F)) F2!<(! (F-=F | (FE)) E2 ((EF) | %199
 (F_G) (GF)!<)! (FE)) |!>(! (=A2 =G2!>)! ^F2) |"^cresc."!>(! (_e2 d2!>)! c2) | %202
!>(! (d2 c2!>)! =B2) |!>(! (_a2 g2!>)! f2) |!f! (g2 ^f2!>(! =e2-)!>)! | e4 z2 | z6 | %207
!p!!<(! (B6!<)! |!>(! g6-)!>)! | g6- |"^expr." (g2 c'2 b2 | a2 g2) (c'2 | b2 a2 g2 | %213
 e2 ^c2"^dolce" d2-) |"^dim." (d2 =c2 B2 | A2 G2) (.c2 | (B2) A2 G2 | E2 ^C2 D2) | (D6 | G,6) | %220
 G,6- | G,6 | G,6- | G,6- | G,2 z2 z2 |] %225
V:2
"^Allegro appassionato" z2 | x6 | [A,CA]6 | x2 A,3 x | [CAc]6 | x6 | x6 | ([EAc]2 [B,GB]2 [=DA]2) | %8
 ([=DF]2 [EG]2)!f! [C=EBc]2 | ([Aca]4 [Bb][Aa] | [Gg][Ff] [cc']2) ([Aa]2 | [faf']4 [gg'][ff'] | %12
 [ec'e'][dbd'] [ec'e']2)"^espr."!<(! (A2 | f2 ba!<)!gf) | (dcdBce) |!f! ([ceac']2 [Bgb]2 [A=df]2 | %16
 [F=da]2 [Geg]2) z2 |!>(! [EF]4!>)! z2 |!>(! [EF]4!>)! z2 |!>(! [EF]4!>)! z2 | %20
!>(! [EF]4!>)!!f! [F=df]2 |!>(! [Aa]2 [Gg]2 [=D=d]2!>)! | [Ff]2 [Gg]2 [Bb]2 | %23
 [Aa]2 [Gg]2!>(! [=D=d]2!>)! | [=E=e]2 [Fc=df]2 [GBeg]2 | [Bb]2 [Aa]2 [=B,F=B]2 | %26
 [_D_d]2 [Cc]2!ff! [G,_B,C]2 | [Acfa]6 | x4 _G2- | [Gce]6- | [Gce]4!ff! .[CEA]2 | [Ad=ea]6 | %32
 x2 x _G,3- | [G,CE_G]6- | [G,CEG]4!ff! .[Acea]2 | [faf']4 [gbg'][ff'] | %36
 [=ec'=e'][=d=d'] .[ec'e']2 z2 |"^poco"!f! z2 ([CFA]A,) z2 | z2 ([FAc]C) z2 | z2 ([FA]A,[FB]B,) | %40
 z2 ([Ac]C[CE]A,) | z2 ([FA]D[Ad]D) | ([Ac]D[GB]D) ([Gd]D) | ([GB]C[FA]C) z2 | %44
!f! [FAf]d .[DFB]2 [=EG=e]c |!f! [Aa][Ff] [Dd][B,B] .[G,G]2 | [G=B=dfg]4 .C2 |!>(! [c=egb=c']6- | %48
 [cegbc']4!>)! z2 |!p! A,C FA z2 | =A,C F=A z2 | B,D _GB z2 | B,=GB=gba | gf z2 (ba | _gf) z2 (ag | %55
 f=e) e2 (e_e | e_d) d2 (de | e=e) e2 (e_e | _e_ddee=e) | =e2 f2 g2 | z6 | %61
"^cresc."!>(! =a2 b2!>)! c'2 | z6 |!f! =d'2 =e'2!>(! f'2-!>)! | f'4 z2 | z6 | z6 | z6 | %68
 !arpeggio![=DFA]2 z2 z2 | !arpeggio![FAf]2 z2 z2 | !arpeggio![DFA]2 z2 z2 | %71
!>(! !arpeggio![DAd]2 z2!>)! z2 | [DG]2 z2 z2 | [B,GB]2 z2 [B,=E]2 | z2 [A,F]2 z2 | %75
[K:bass] [F,B,D]2 z2 z2 | [=E,B,]2 z2 z2 | z6 |[K:treble] FBdfbd' | [fac'f']6- | [fac'f']2 z2 z2 || %81
[K:C#][K:bass]!f!"^ma dolce e ben cantando""^Sostenuto" [G,E]6 | C4 C2 | [A,CF]4 [G,E][E,C] | %84
 [G,CE]4 [B,D]G, |!>(! [EG]6!>)! | [E,CE]2 [G,DFG]2[K:treble] [CEc]2 | [A,CFA]4 [G,EG][F,DF] | %88
 [G,CEG]3 (CGc) |!<(! [CEAc]4 [B,GB][A,^^FA] | [B,GB]3 [A,^^FA][G,EG]!<)![^^F,^^DF] | %91
!<(! [G,EG]2 [B,^^FB]2!<)! [EGe]2 |!>(! [B,^^FB]4!>)! [G,EG]2 |!<(! [B,^^FB]2 [EGe]2!<)! [B,FB]2 | %94
!>(! [G,EG]4!>)! [^^F,B,^^F]2 | [G,E]6 | [E,CE]2 [F,DF]2 [G,EG]2 | [A,CFA]4 [G,EG][E,CE] | %98
 [G,CEG]4 [G,B,DG]2 |!>(! [EGe]6!>)! | [CEc]2 [DFd]2 [EGe]2 |!<(! x4 c2!<)! | [Ece]3 (C Ec) | %103
"^cresc." [CEAc]4 [B,GB][A,^^FA] | [B,GB]3 [A,^^FA] [G,EG][^^F,=EF] | %105
!<(! [G,^EG]2 [B,^^FB]2!<)! [EG^e]2 |!>(! [B,^^FB]4!>)! [G,EG]2 | %107
!<(! [B,^^FB]2 [EGe]2!<)! [B,FB]2 |!>(! [G,EG]4!>)! [^^F,B,^^F]2 |[K:bass]!f!!>(! [E,E]6!>)! | %110
 [A,^^C]2 [B,D]2 [A,CE]2 |!>(! [E,^^G,B,E]6!>)! | [E,A,^^C]2 [D,B,D]2 [E,CE]2 | %113
"^cresc."!>(! [^^F,D^^F]2 [A,E]2!>)! [F,D]2 |!>(! [G,B,G]2 [D,A,D]2!>)! [G,B,]2 | %115
!>(! [^^F,D^^F]2 [A,E]2!>)! [F,D]2 |[K:treble] [B,DB]2 [^^CG]2 [B,D]2 | %117
[K:bass] [A,^^C]2 [G,B,]2 [^^F,A,]2 | ^^C4 D2 |!>(! [^^F,D]6!>)! |!>(! [^^F,=E]6!>)! | %121
[K:treble]!>(! [^EG^e]6!>)! | [CEc]2 [DFd]2 [EGe]2 | [FAcf]4 ([Ee][Cc]) | [Ece]3 [DBd]G[Bdg] | %125
 [Afa]4 [Geg]2 | [FAdf]2 [Aega]2!f! !>![df=bd']2- | [dfbd']2 !>![cfac']4 | %128
 [^B^b][dd'][gg'][ff'][dd'][Bb] | [cegc']2 [dgd']2 [egc'e']2 | [dgd']4 [cec']2- | [cec']2 [E,CE]4 | %132
 [G,DG]2 [CEc]2 [G,DG]2 |[K:bass] [E,CE]4!>(! ([F,B,D]2- | [F,B,D]2!>)! [A,C]4) | [E,G,C]6 | %136
 z2 [=C,=C]4 | [=C,=C]6- |[M:3/4] [C,C]4 || %139
[K:Ab][M:3/4][K:treble]"^Allegro appassionato" .[Acea]2 | [faf']4 [gg'][ff'] | %141
 [=e=e'][=d=d'] .[ec'e']2 z2 | x6 | [A,CA]6 | x2 A,3 x | [CAc]6 | x6 | x6 | [EAc]2 [B,GB]2 [=DA]2 | %149
 [=DF]2 [EG]2!f! [C=EBc]2 | [Aca]4 [Bb][Aa] | [Gg][Ff] [cc']2 [Aa]2 | [faf']4 [gg'][ff'] | %153
 [ec'e'][dbd'] [ec'e']2"^espr."!<(! A2 | f2 ba!<)!gf | dcdBce |!f! [ceac']2 [Bgb]2 [A=df]2 | %157
 [F=da]2 [Geg]2 z2 |!>(! [EF]4!>)! z2 |!>(! [EF]4!>)! z2 |!>(! [EF]4!>)! z2 | %161
!>(! [EF]4!>)!!f! [F=df]2 |!>(! [Aa]2 [Gg]2!>)! [=D=d]2 | [Ff]2 [Gg]2 [Bb]2 | %164
 [Aa]2 [Gg]2!>(! [=D=d]2 | [=E=e]2!>)! [Fc=df]2 [GBeg]2 | [Bb]2 [Aa]2 [=B,F=B]2 | %167
 [_D_d]2 [Cc]2!ff! [G,_B,C]2 | [Acfa]6 | x4 _G2- | [Gce]6- | [Gce]4!ff! .[CEA]2 | [Ad=ea]6 | %173
 x2 x _G,3- | [G,CE_G]6- | [G,CEG]4!ff! .[Acea]2 | [faf']4 [gbg'][ff'] | %177
 [=ec'=e'][=d=d'] .[ec'e']2 z2 |"^poco"!f! z2 ([CFA]A,) z2 | z2 ([FAc]C) z2 | z2 ([FA]A,[FB]B,) | %181
 z2 ([Ac]C[CE]A,) | z2 ([FA]D[Ad]D) | ([Ac]D[GB]D) ([Gd]D) | ([GB]C[FA]C) z2 | %185
!f! [FAf]d .[DFB]2 [=EG=e]c |!f! [Aa][Ff] [Dd][B,B] .[G,G]2 | [G=B=dfg]4 .C2 |!>(! [c=egb=c']6- | %189
 [cegbc']4!>)! z2 |!p! A,C FA z2 | =A,C F=A z2 | B,D _GB z2 | B,=GB=gba | gf z2 (ba | _gf) z2 (ag | %196
 f=e) e2 (e_e | e_d) d2 (de | e=e) e2 (e_e | _e_ddee=e) | =e2 f2 g2 | z6 | %202
"^cresc."!>(! =a2 b2!>)! c'2 | z6 |!f! =d'2 =e'2!>(! f'2-!>)! | f'4 z2 | z6 | z6 | z6 | %209
 !arpeggio![=DFA]2 z2 z2 | !arpeggio![FAf]2 z2 z2 | !arpeggio![DFA]2 z2 z2 | %212
!>(! !arpeggio![DAd]2 z2!>)! z2 | [DG]2 z2 z2 | [B,GB]2 z2 [B,=E]2 | z2 [A,F]2 z2 | %216
[K:bass] [F,B,D]2 z2 z2 | [=E,B,]2 z2 z2 | z6 | z6 |[K:treble] (F2 B2 d2) | .f2 .b2 .d'2 | %222
 [fac'f']6- | [fac'f']6- | [fac'f']2 z2 z2 |] %225
V:3
"^poco"!f! z2 | F,,C,F,[I:staff -1]A,CF |[I:staff +1] E,,6 | D,,D,[I:staff -1]A,FA[B,B] | %4
[I:staff +1] [A,,,A,,]6 | D,,D,[I:staff -1]A,F[DA]d |[I:staff +1] E,,E,[I:staff -1]B,G[CE]A | %7
[I:staff +1] [F,,,F,,]2 B,,,2 B,,2 | [E,,B,,]2 E,2 [C,G,B,]2 | F,,F,[A,C]F[F,A,]C | %10
 E,,E,[F,A,]F[E,F,]C | D,,D,[F,A,]D[D,F,]B, | A,,,A,,[E,A,]C[C,E,]A, | D,,D,[F,A,]D B,,,B,, | %14
 E,,E,[G,B,]E A,,C | [F,,,F,,]2 [B,,,B,,]2 [B,,B,]2 | [E,,B,,]2 E,2 z2 | [E,F,]4 z2 | [E,F,]4 z2 | %19
 [E,F,]4 z2 | [E,F,]4 [B,,=D,B,]2 | [F,,F,]2 [G,,G,]2 z2 | [A,,A,]2 [G,,G,]2 z2 | %23
 [F,,F,]2 [G,,G,]2 [A,,A,]2 | [G,,G,]2 [A,,C,=D,A,]2 [G,,B,,=E,G,]2 | [F,,C,F,]4 [G,,=D,F,G,]2 | %26
 [C,,C,]4 [C,=E,G,B,C]2 | [F,,A,,C,F,]6 | _G,A,CE[I:staff -1]_Gc- |[I:staff +1] [G,CE]6- | %30
 [G,CE]4 .[A,,E,A,]2 | [=E,,A,,D,=E,]6 | C,,A,,C,[I:staff -1]_G,C_E- |[I:staff +1] [C,,C,]6- | %34
 [C,,C,]4 .[A,,C,E,A,]2 |!ped! D,,D,[F,A,]D,[F,B,]D, | [G,C]C, .[C,,C,]2 z2 |!ped! F,,F, z2 F,,F, | %38
 E,,E, z2 E,,E, | D,,D, z2 D,,D, | A,,,A,, z2 A,,E, | D,,D, z2 B,,,B,, | E,,E, z2 E,,,E,, | %43
 A,,,A,, z2 z2 | .[D,,D,]2 .[G,,G,]2 .[C,,C,]2 | [A,,A,][F,,F,] [D,,D,][B,,,B,,] .[G,,,G,,]2 | %46
 [G,=B,=DF]4 .[C,,C,]2 |!ped! [G,_B,C=EG]6- | [G,B,CEG]4 z2 | F,,2 z2 F,2 | E,,2 z2 E,2 | %51
 D,,2 z2 D,2 | C,,2 z2 C,2 | F,,C,F,A, z2 | E,=A,CF z2 | D,_G,B,D z2 | _G,,D,_G,B, z2 | %57
 B,,,B,,D,_G, z2 | B,,D,_G,B, z2 | C,!>(!=G, B,C!>)! z2 | z6 | F,,C,_E,F, z2 | z6 | %63
 =B,,,=B,,F,A,=DF | A2 z2 z2 | z6 | z6 | z6 |!p! [=B,,F,A,=B,]2 z2 z2 | [C,F,A,C]2 z2 z2 | %70
 [D,F,A,]2 z2 z2 | [B,,F,B,]2 z2 z2 | [E,B,]2 z2!pp! =E,,2 | z2 C,,2 z2 | D,,2 z2 G,,,2 | z6 | %76
!ped! C,,2 z2 z2 |!ped! F,,,F,,C,F,A,C | [F,B,D]6 | [F,A,C]6 | .F,,,2 z2 z2 || %81
[K:C#]!>(! [G,,,G,,]2 [A,,,A,,]2!>)! [B,,,B,,]2 | [C,,C,]6 | [F,,,F,,]2 [A,,,A,,]2 [C,,C,]2 | %84
 [E,,,E,,]2 [G,,,G,,]4 | E,6 | C,2- [D,F,]2 [E,G,]2 | [C,,C,]2 [F,,,F,,]2 [A,,,A,,]2 | %88
 [C,,C,]2 [E,,E,]2 [C,,C,]2 | [A,,,A,,]2 [C,,C,]2 [E,,E,]2 | [G,,,G,,]2 [B,,,B,,]4 | %91
 [E,,E,]2 [B,,,B,,]2 [G,,,G,,]2 | [B,,,B,,]2 [E,,E,]4 | [B,,,B,,]2 [G,,,G,,]2 [B,,,B,,]2 | %94
 [E,,E,]2 [B,,,B,,]4 |!p! [G,,,G,,]2!>(! [A,,,A,,]2 [B,,,B,,]2!>)! | [C,,C,]6 | %97
 [F,,,F,,]2 [A,,,A,,]2 [C,,C,]2 | [E,,,E,,]2 [G,,,G,,]4 | E,6 | [E,G,]2 [D,F,]2 [E,G,]2 | %101
 [C,F,A,C]2 [F,,,F,,]2 [A,,,A,,]2 |!<(! [C,,C,]2 [E,,E,]2!<)! [C,,C,]2 | %103
 [A,,,A,,]2 [C,,C,]2 [E,,E,]2 | [G,,,G,,]2 [B,,,B,,]4 | [E,,E,]2 [B,,,B,,]2 [G,,,G,,]2 | %106
 [B,,,B,,]2 [E,,E,]4 | [B,,,B,,]2 [G,,,G,,]2 [B,,,B,,]2 | [E,,E,]2 [B,,,B,,]4 | %109
 [E,,,E,,]2 [^^F,,,^^F,,]2 [=A,,,=A,,]2 | [^A,,,^A,,]6 | [E,,,E,,]2 [^^F,,,^^F,,]2 [=A,,,=A,,]2 | %112
 ^A,,2 B,,2 ^^C,2 | [D,,,D,,]2 [^^F,,,^^F,,]2 [A,,,A,,]2 | [G,,,G,,]2 [B,,,B,,]2 [D,,D,]2 | %115
 [D,,,D,,]2 [^^F,,,^^F,,]2 [A,,,A,,]2 | [G,,,G,,]2 [B,,,B,,]2 [D,,D,]2 | G,,4 A,,2 | A,,,4 D,,2 | %119
 [D,,D,]2 [^C,,^C,]4 | [B,,,B,,]2 [A,,,A,,]4 |!f!"^ma dolce" [G,,,G,,]2 [A,,,A,,]2 [B,,,B,,]2 | %122
 [C,,C,]6 | [F,,,F,,]2 [A,,,A,,]2 [C,,C,]2 | [E,,,E,,]2 [G,,,G,,]4 | [F,,F,]2 [G,,G,]2 [A,,E,A,]2 | %126
 [D,,D,]2 [D,E,G,A,]2 [=B,,D,F,=B,]2 | [=B,,,=B,,]2 [F,,A,,C,F,]2 [F,,,F,,]2 | %128
 [G,,D,F,G,]2 [G,,C,F,A,]2 [G,,D,F,^B,]2 | [C,,C,]2 [G,,,G,,]2 [E,,,E,,]2 | [G,,,G,,]2 [C,,C,]4 | %131
 [A,,,A,,]4 [^^F,,,^^F,,]2 |!8vb(! G,,,2 E,,,2 G,,,2 | C,,2 G,,,4 | A,,,4 F,,,2!8vb)! |!p! C,,,6 | %136
!pp! =C,,4 C,,2- | C,,6- |[M:3/4] C,,4 ||[K:Ab][M:3/4] .[A,,C,E,A,]2 | D,,D, [F,A,]D, [F,B,]D, | %141
 .[C,G,C]2 .[C,,C,]2"^poco"!f! z2 | F,,C,F,[I:staff -1]A,CF |[I:staff +1] E,,6 | %144
 D,,D,[I:staff -1]A,FA[B,B] |[I:staff +1] [A,,,A,,]6 | D,,D,[I:staff -1]A,F[DA]d | %147
[I:staff +1] E,,E,[I:staff -1]B,G[CE]A |[I:staff +1] [F,,,F,,]2 B,,,2 B,,2 | %149
 [E,,B,,]2 E,2 [C,G,B,]2 | F,,F,[A,C]F[F,A,]C | E,,E,[F,A,]F[E,F,]C | D,,D,[F,A,]D[D,F,]B, | %153
 A,,,A,,[E,A,]C[C,E,]A, | D,,D,[F,A,]D B,,,B,, | E,,E,[G,B,]E A,,C | %156
 [F,,,F,,]2 [B,,,B,,]2 [B,,B,]2 | [E,,B,,]2 E,2 z2 | [E,F,]4 z2 | [E,F,]4 z2 | [E,F,]4 z2 | %161
 [E,F,]4 [B,,=D,B,]2 | [F,,F,]2 [G,,G,]2 z2 | [A,,A,]2 [G,,G,]2 z2 | [F,,F,]2 [G,,G,]2 [A,,A,]2 | %165
 [G,,G,]2 [A,,C,=D,A,]2 [G,,B,,=E,G,]2 | [F,,C,F,]4 [G,,=D,F,G,]2 | [C,,C,]4 [C,=E,G,B,C]2 | %168
 [F,,A,,C,F,]6 | _G,A,CE[I:staff -1]_Gc- |[I:staff +1] [G,CE]6- | [G,CE]4 .[A,,E,A,]2 | %172
 [=E,,A,,D,=E,]6 | C,,A,,C,[I:staff -1]_G,C_E- |[I:staff +1] [C,,C,]6- | [C,,C,]4 .[A,,C,E,A,]2 | %176
 D,,D,[F,A,]D,[F,B,]D, | [G,C]C, .[C,,C,]2 z2 | F,,F, z2 F,,F, | E,,E, z2 E,,E, | D,,D, z2 D,,D, | %181
 A,,,A,, z2 A,,E, | D,,D, z2 B,,,B,, | E,,E, z2 E,,,E,, | A,,,A,, z2 z2 | %185
 .[D,,D,]2 .[G,,G,]2 .[C,,C,]2 | [A,,A,][F,,F,] [D,,D,][B,,,B,,] .[G,,,G,,]2 | %187
 [G,=B,=DF]4 .[C,,C,]2 |!ped! [G,_B,C=EG]6- | [G,B,CEG]4 z2 | F,,2 z2 F,2 | E,,2 z2 E,2 | %192
 D,,2 z2 D,2 | C,,2 z2 C,2 | F,,C,F,A, z2 | E,=A,CF z2 |!ped! D,_G,B,D z2 | _G,,D,_G,B, z2 | %198
 B,,,B,,D,_G, z2 | B,,D,_G,B, z2 | C,!>(!=G, B,C!>)! z2 | z6 | F,,C,_E,F, z2 | z6 | %204
 =B,,,=B,,F,A,=DF | A2 z2 z2 | z6 | z6 | z6 |!p! [=B,,F,A,=B,]2 z2 z2 | [C,F,A,C]2 z2 z2 | %211
 [D,F,A,]2 z2 z2 | [B,,F,B,]2 z2 z2 | [E,B,]2 z2!pp! =E,,2 | z2 C,,2 z2 | D,,2 z2 G,,,2 | z6 | %217
 C,,2 z2 z2 | F,,,2 F,,2 .C,2 | .F,2 .A,2 .C2 | [F,B,DF]6- | [F,B,DF]6 | [F,A,CF]6- | [F,A,CF]6 | %224
 .[F,,,F,,]2 z2 z2 |] %225
V:4
 x2 | F,,6 | x6 | D,,6 | x6 | D,,4 [B,,,B,,]2 | E,,4 [A,,,A,,]2 | x6 | x6 | x6 | x6 | x6 | x6 | %13
 x6 | x6 | x6 | x6 | A,,2 B,,2 x2 | C,2 B,,2 x2 | A,,2 B,,2 x2 | _C,2 B,,2 x2 | x6 | x6 | x6 | x6 | %25
 x6 | x6 | x6 | _G,6- | x6 | x6 | x6 | C,,6- | x6 | x6 | x6 | x6 | x6 | x6 | x6 | x6 | x6 | x6 | %43
 x6 | x6 | x6 | x6 | x6 | x6 | x6 | x6 | x6 | x6 | x6 | x6 | x6 | x6 | x6 | x6 | x6 | x6 | x6 | %62
 x6 | x6 | x6 | x6 | x6 | x6 | x6 | x6 | x6 | x6 | x6 | x6 | x6 | x6 | x6 | x6 | x6 | x6 | x6 || %81
[K:C#] x6 | x6 | x6 | x6 | G,,2 A,,2 B,,2 | C,,2 C,2 C,2 | x6 | x6 | x6 | x6 | x6 | x6 | x6 | x6 | %95
 x6 | x6 | x6 | x6 | [G,,G,]2 [A,,A,]2 [B,,B,]2 | C,4 C,2 | x6 | x6 | x6 | x6 | x6 | x6 | x6 | x6 | %109
 x6 | x6 | x6 | ^A,,,4 A,,2 | x6 | x6 | x6 | x6 | x6 | x6 | x6 | x6 | x6 | x6 | x6 | x6 | x6 | x6 | %127
 x6 | x6 | x6 | x6 | x6 |!8vb(! x6 | x6 | x6!8vb)! | x6 | x6 | x6 |[M:3/4] x4 ||[K:Ab][M:3/4] x2 | %140
 x6 | x6 | F,,6 | x6 | D,,6 | x6 | D,,4 [B,,,B,,]2 | E,,4 [A,,,A,,]2 | x6 | x6 | x6 | x6 | x6 | %153
 x6 | x6 | x6 | x6 | x6 | A,,2 B,,2 x2 | C,2 B,,2 x2 | A,,2 B,,2 x2 | _C,2 B,,2 z2 | x6 | x6 | x6 | %165
 x6 | x6 | x6 | x6 | _G,6- | x6 | x6 | x6 | C,,6- | x6 | x6 | x6 | x6 | x6 | x6 | x6 | x6 | x6 | %183
 x6 | x6 | x6 | x6 | x6 | x6 | x6 | x6 | x6 | x6 | x6 | x6 | x6 | x6 | x6 | x6 | x6 | x6 | x6 | %202
 x6 | x6 | x6 | x6 | x6 | x6 | x6 | x6 | x6 | x6 | x6 | x6 | x6 | x6 | x6 | x6 | x6 | x6 | x6 | %221
 x6 | x6 | x6 | x6 |] %225
V:5
 x2 | x6 | x6 | x6 | x6 | x6 | x6 | x6 | B,4 x2 | x6 | x6 | x4 b2 | x4 A2- | [Af]4 [Ad]2 | G4 E2 | %15
 x6 | x6 | (A,2 B,2) x2 | (C2 B,2) x2 | (A,2 B,2) x2 | _C2 B,2 x2 | x6 | x6 | x4 [c=d]2- | %24
 [cd]2 x4 | [cf]4 x2 | [F_B]4 x2 | x6 | x6 | x6 | x6 | x6 | x4 C2- | x6 | x6 | x6 | x6 | x6 | x6 | %39
 x6 | x6 | x6 | x6 | x6 | x6 | x6 | x6 | x6 | x6 | x6 | x6 | x6 | x4 =e2 | x6 | x6 | x6 | x6 | x6 | %58
 x6 | x6 | x6 | x6 | x6 | x6 | x6 | x6 | x6 | x6 | x6 | x6 | x6 | x6 | x6 | x6 | x6 |[K:bass] x6 | %76
 x6 | x6 |[K:treble] x6 | x6 | x6 ||[K:C#][K:bass] x6 | [E,C]2 [F,D]2 [G,E]2 | x6 | x6 | %85
 G,2 A,2 B,2 | x4[K:treble] x2 | x6 | x4 E2 | x6 | x6 | x6 | x6 | x6 | x6 | x6 | x6 | x6 | x6 | %99
 x6 | x6 | [FAcf]4 [Ee][Dd] | x4 G2 | x6 | x6 | x6 | x6 | x6 | x6 |[K:bass] x6 | E,4 E,2 | x6 | %112
 x6 | x6 | x6 | x6 |[K:treble] x6 |[K:bass] x6 | (A,2 G,2 ^^F,2) | x6 | x6 |[K:treble] x6 | x6 | %123
 x4 G2 | x6 | A2 B2 ^^c2 | x6 | x6 | x6 | x6 | x6 | x6 | x6 |[K:bass] x6 | x2 (E,2 F,2) | x6 | x6 | %137
 x6 |[M:3/4] x4 ||[K:Ab][M:3/4][K:treble] x2 | x4 b2 | c'2 x4 | x6 | x6 | x6 | x6 | x6 | x6 | x6 | %149
 B,4 x2 | x6 | x6 | x4 b2 | x4 A2- | [Af]4 [Ad]2 | G4 E2 | x6 | x6 | A,2 B,2 x2 | C2 B,2 x2 | %160
 A,2 B,2 x2 | (_C2 B,2) x2 | x6 | x6 | x4 [c=d]2- | [cd]2 x4 | [cf]4 x2 | [F_B]4 x2 | x6 | x6 | %170
 x6 | x6 | x6 | x4 C2- | x6 | x6 | x6 | x6 | x6 | x6 | x6 | x6 | x6 | x6 | x6 | x6 | x6 | x6 | x6 | %189
 x6 | x6 | x6 | x6 | x4 =e2 | x6 | x6 | x6 | x6 | x6 | x6 | x6 | x6 | x6 | x6 | x6 | x6 | x6 | x6 | %208
 x6 | x6 | x6 | x6 | x6 | x6 | x6 | x6 |[K:bass] x6 | x6 | x6 | x6 |[K:treble] x6 | x6 | x6 | x6 | %224
 x6 |] %225
V:6
 x2 | x6 | x6 | x6 | x6 | x6 | x6 | x6 | x6 | x6 | x6 | x4 x2 | x6 | x6 | x6 | x6 | x6 | x6 | x6 | %19
 x6 | x6 | [c=d]4 x2 | [c=d]4 x2 | [c=d]4 x2 | x6 | x6 | x6 | x6 | x6 | x6 | x6 | x6 | x6 | x6 | %34
 x6 | x6 | x6 | x6 | x6 | x6 | x6 | x6 | x6 | x6 | x6 | x6 | x6 | x6 | x6 | x6 | x6 | x6 | x6 | %53
 x6 | x6 | x6 | x6 | x6 | x6 | x6 | x6 | x6 | x6 | x6 | x6 | x6 | x6 | x6 | x6 | x6 | x6 | x6 | %72
 x6 | x6 | x6 |[K:bass] x6 | x6 | x6 |[K:treble] x6 | x6 | x6 ||[K:C#][K:bass] x6 | x6 | x6 | x6 | %85
 x6 | x4[K:treble] x2 | x6 | x6 | x6 | x6 | x6 | x6 | x6 | x6 | x6 | x6 | x6 | x6 | x6 | x6 | %101
 x4 x2 | x6 | x6 | x6 | x6 | x6 | x6 | x6 |[K:bass] x6 | x6 | x6 | x6 | x6 | x6 | x6 | %116
[K:treble] x6 |[K:bass] x6 | x6 | x6 | x6 |[K:treble] x6 | x6 | x6 | x6 | x6 | x6 | x6 | %128
 [fg]2 c'2 [fg]2 | x6 | x6 | x6 | x6 |[K:bass] x6 | x6 | x6 | x6 | x6 |[M:3/4] x4 || %139
[K:Ab][M:3/4][K:treble] x2 | x6 | x6 | x6 | x6 | x6 | x6 | x6 | x6 | x6 | x6 | x6 | x6 | x4 x2 | %153
 x6 | x6 | x6 | x6 | x6 | x6 | x6 | x6 | x6 | [c=d]4 x2 | [c=d]4 x2 | [c=d]4 x2 | x6 | x6 | x6 | %168
 x6 | x6 | x6 | x6 | x6 | x6 | x6 | x6 | x6 | x6 | x6 | x6 | x6 | x6 | x6 | x6 | x6 | x6 | x6 | %187
 x6 | x6 | x6 | x6 | x6 | x6 | x6 | x6 | x6 | x6 | x6 | x6 | x6 | x6 | x6 | x6 | x6 | x6 | x6 | %206
 x6 | x6 | x6 | x6 | x6 | x6 | x6 | x6 | x6 | x6 |[K:bass] x6 | x6 | x6 | x6 |[K:treble] x6 | x6 | %222
 x6 | x6 | x6 |] %225
V:7
 x2 | x6 | x6 | x6 | x6 | x6 | x6 | x6 | x6 | x6 | x6 | x6 | x6 | x6 | x6 | x6 | x6 | x6 | x6 | %19
 x6 | x6 | [C,=D,]4 z2 | [C,=D,]4 z2 | [C,=D,]4 [C,D,]2- | [C,D,]2 x4 | x6 | x6 | x6 | x3 E3- | %29
 x6 | x6 | x6 | x6 | x6 | x6 | x6 | x6 | x6 | x6 | x6 | x6 | x6 | x6 | x6 | x6 | x6 | x6 | x6 | %48
 x6 | x6 | x6 | x6 | x6 | x6 | x6 | x6 | x6 | x6 | x6 | x6 | x6 | x6 | x6 | x6 | x6 | x6 | x6 | %67
 x6 | x6 | x6 | x6 | x6 | x6 | x6 | x6 | x6 | x6 | x6 | x6 | x6 | x6 ||[K:C#] x6 | x6 | x6 | x6 | %85
 x6 | x6 | x6 | x6 | x6 | x6 | x6 | x6 | x6 | x6 | x6 | x6 | x6 | x6 | x6 | x6 | x6 | x6 | x6 | %104
 x6 | x6 | x6 | x6 | x6 | x6 | x6 | x6 | x6 | x6 | x6 | x6 | x6 | x6 | x6 | x6 | x6 | x6 | x6 | %123
 x6 | x6 | x6 | x6 | x6 | x6 | x6 | x6 | x6 |!8vb(! x6 | x6 | x6!8vb)! | x6 | x6 | x6 | %138
[M:3/4] x4 ||[K:Ab][M:3/4] x2 | x6 | x6 | x6 | x6 | x6 | x6 | x6 | x6 | x6 | x6 | x6 | x6 | x6 | %153
 x6 | x6 | x6 | x6 | x6 | x6 | x6 | x6 | x6 | [C,=D,]4 z2 | [C,=D,]4 z2 | [C,=D,]4 [C,D,]2- | %165
 [C,D,]2 z2 z2 | x6 | x6 | x6 | x3 E3- | x6 | x6 | x6 | x6 | x6 | x6 | x6 | x6 | x6 | x6 | x6 | %181
 x6 | x6 | x6 | x6 | x6 | x6 | x6 | x6 | x6 | x6 | x6 | x6 | x6 | x6 | x6 | x6 | x6 | x6 | x6 | %200
 x6 | x6 | x6 | x6 | x6 | x6 | x6 | x6 | x6 | x6 | x6 | x6 | x6 | x6 | x6 | x6 | x6 | x6 | x6 | %219
 x6 | x6 | x6 | x6 | x6 | x6 |] %225
V:8
 x2 | x6 | x6 | x6 | x6 | x6 | x6 | x6 | x6 | x6 | x6 | x6 | x6 | x6 | x6 | x6 | x6 | x6 | x6 | %19
 x6 | x6 | x6 | x6 | x6 | x6 | x6 | x6 | x6 | x2 C4- | x6 | x6 | x6 | x2 C,4- | x6 | x6 | x6 | x6 | %37
 x6 | x6 | x6 | x6 | x6 | x6 | x6 | x6 | x6 | x6 | x6 | x6 | x6 | x6 | x6 | x6 | x6 | x6 | x6 | %56
 x6 | x6 | x6 | x6 | x6 | x6 | x6 | x6 | x6 | x6 | x6 | x6 | x6 | x6 | x6 | x6 | x6 | x6 | x6 | %75
 x6 | x6 | x6 | x6 | x6 | x6 ||[K:C#] x6 | x6 | x6 | x6 | x6 | x6 | x6 | x6 | x6 | x6 | x6 | x6 | %93
 x6 | x6 | x6 | x6 | x6 | x6 | x6 | x6 | x6 | x6 | x6 | x6 | x6 | x6 | x6 | x6 | x6 | x6 | x6 | %112
 x6 | x6 | x6 | x6 | x6 | x6 | x6 | x6 | x6 | x6 | x6 | x6 | x6 | x6 | x6 | x6 | x6 | x6 | x6 | %131
 x6 |!8vb(! x6 | x6 | x6!8vb)! | x6 | x6 | x6 |[M:3/4] x4 ||[K:Ab][M:3/4] x2 | x6 | x6 | x6 | x6 | %144
 x6 | x6 | x6 | x6 | x6 | x6 | x6 | x6 | x6 | x6 | x6 | x6 | x6 | x6 | x6 | x6 | x6 | x6 | x6 | %163
 x6 | x6 | x6 | x6 | x6 | x6 | z2 C4- | x6 | x6 | x6 | z2 C,4- | x6 | x6 | x6 | x6 | x6 | x6 | x6 | %181
 x6 | x6 | x6 | x6 | x6 | x6 | x6 | x6 | x6 | x6 | x6 | x6 | x6 | x6 | x6 | x6 | x6 | x6 | x6 | %200
 x6 | x6 | x6 | x6 | x6 | x6 | x6 | x6 | x6 | x6 | x6 | x6 | x6 | x6 | x6 | x6 | x6 | x6 | x6 | %219
 x6 | x6 | x6 | x6 | x6 | x6 |] %225

